X: 18403
T: Hunt, The
R: hornpipe
M: 4/4
K: Gmajor
(D|:G>A)BA/G/ A>GE>G|c2 c>e d>cB>A|G>ABA/G/ A>GED|E>AA>G A>c BA|
G>ABA/G/ A>GE>G|c>ded/c/ d>cBA|G>A B<G A>GE>D|E<GGA G3 D:|
|:G>AB>c d2 de|=f2 =f2 .=f2 e>d|e2 e2 e>fg>e|d2 d>e d2 c>B|
c>Bc>d e>dc>B|A2 A>B A2 G2|.g2 .g2 g>edB|A2 A>B A2 GE|
G>A)BA/G/ A>GE>G|c2 c>e d>cB>A|G>A B>G A>GE>D|E<GGF G2 D/E/F:|

